X:507
T:Willie
C:Robert Earl Keen
N:Transcribed by Jacob Roberts "No Kinda Dancer" Guitar Capo on 4
R:bluegrass
L:1/8
Q:1/4=205
M:4/4
K:C
z8 | z2 [e2A2D2G,2] z2 [e2A2D2G,2] | z2 [e2A2D2G,2] z2 [e2A2D2G,2] | z2 [e4A4D4G,4] [e2A2D2G,2] | 
z2 [e2A2D2G,2] z2 [e2A2D2G,2] | z2 [e4A4D4G,4] [e2A2D2G,2] | z2 [e2A2D2G,2] z2 [e2A2D2G,2] | 
z2 [e2A2D2G,2] z2 [e2A2D2G,2] | z2 [e2A2D2G,2] z2 [e2A2D2G,2] | z2 [e2A2D2G,2] z2 [e2A2D2G,2] | 
z2 [e4A4D4G,4] [e2A2D2G,2] | ^D2 [B3D3][BD] [B2D2] | E2 [^c3E3][cE] [c2E2] | ^F2 [^d3F3][dF] [d2F2] | 
{^F}A2 [^f4A4] ^d2 | e2 ee2e e2 | ^c2 _B^G2^F GB | B2 B^G _BG ^F^D | ^C^D B,2 B,C D^F | 
^DD [BD][BD] DD [B2D2] | ^C2 E3C [E2C2] | B,2 ^D3B, [D2B,2] | A,2 A3A, [A2A2] | 
[^G3E3][G3E3] [G2E2] | ^F3F F^G _B^d | ^c2 B3^G ^F2 | B8 | z2 [e2A2D2G,2] z2 [e2A2D2G,2] | 
z2 [e4A4D4G,4] [e2A2D2G,2] | z2 [e2A2D2G,2] z2 [e2A2D2G,2] | z2 [e2A2D2G,2] z2 [e2A2D2G,2] | 
z2 [e4A4D4G,4] [e2A2D2G,2] | z2 [e2A2D2G,2] z2 [e2A2D2G,2] | z2 [e4A4D4G,4] [e2A2D2G,2] | 
z2 [e2A2D2G,2] z2 [e2A2D2G,2] | z2 [e2A2D2G,2] z2 [e2A2D2G,2] | z2 [e4A4D4G,4] [e2A2D2G,2] | 
z2 [e2A2D2G,2] z2 [e2A2D2G,2] | z2 [e4A4D4G,4] [e2A2D2G,2] | z2 [e2A2D2G,2] z2 [e2A2D2G,2] | 
z2 [e2A2D2G,2] z2 [e2A2D2G,2] | z2 [e2A2D2G,2] z2 [e2A2D2G,2] | z2 [e2A2D2G,2] z2 [e2A2D2G,2] | 
z2 [e4A4D4G,4] [e2A2D2G,2] | z2 ^fe ^d^c BA | B2 B^c ^de ^fe | b_b2^g2^f e^d | 
e^f e^d ^cd ef | e^d ^cd B^G ^FG | E2 E^F ^GB2G | _B^G ^FG B=B ^c_B | B2 B^F2E2^D | 
B,2 ^DE2^F2_B | B8 | z2 [e2A2D2G,2] z2 [e2A2D2G,2] | z2 [e4A4D4G,4] [e2A2D2G,2] | 
z2 [e2A2D2G,2] z2 [e2A2D2G,2] | z2 [e4A4D4G,4] [e2A2D2G,2] | z2 [e2A2D2G,2] z2 [e2A2D2G,2] | 
z2 [e2A2D2G,2] z2 [e2A2D2G,2] | z2 [e2A2D2G,2] z2 [e2A2D2G,2] | z2 ^d3d2d | e2 e^d4z | 
^G4 ^c2 c^d | ^cB ^G6 | z4 E^G3 | B^G B2 B_B ^F2 | _B2 =B3B B2 | B2 B^c ^d^f ^g2 | 
^g2 g2 g2 g2 | ^g2 g_b gb g^f | ^g2 g^f g2 gf | ^g^f gf gf ^d^c | B2 B^c B^G ^FG | 
B^G ^FG B^c ^dB | ^c^d ^fd2d cd | B2 ^F2 [B4^D4B,4] | z8 | z8 | z8 | z8 | z8 | 
z8 | z8 | z8 | z8 | 


